img/Download.svg

<svg width="17" height="17" viewBox="0 0 17 17" fill="none" xmlns="http://www.w3.org/2000/svg">
<path fill-rule="evenodd" clip-rule="evenodd" d="M16 12.4262C16 12.1887 16.2626 12 16.5 12C16.7374 12 17 12.1887 17 12.4262V16.56C17 16.7974 16.8051 17 16.5677 17H0.42616C0.188723 17 0 16.7974 0 16.56V12.4262C0 12.1887 0.262562 12 0.5 12C0.737438 12 1 12.1887 1 12.4262V16H16V12.4262ZM9 0V10H12L8.5 14L5 10H8V0H9Z" fill="white"/>
</svg>

<svg width="17" height="17" fill="none" xmlns="http://www.w3.org/2000/svg"><path fill-rule="evenodd" clip-rule="evenodd" d="M16 12.426c0-.237.263-.426.5-.426s.5.189.5.426v4.134a.44.44 0 0 1-.432.44H.426A.435.435 0 0 1 0 16.56v-4.134C0 12.19.263 12 .5 12s.5.189.5.426V16h15v-3.574ZM9 0v10h3l-3.5 4L5 10h3V0h1Z" fill="#fff"/></svg>
